X:1
T: Miss Ross of Elgin's Strathspey
C:William Marshall
R:Strathspey
Q: 128
K:D
M:4/4
L:1/16
|:F2|D3A F3A D3A F3A|E=c3 d3G E4 C2E2|D3A F3A D3A F3A|Dd3 d3A F4 D2F2|
D3A F3A D3A F3A|E=c3 d3G E4 C2E2|D3A F3A D3A F3A|Dd3 d3A F4 D2f2|
d3f A3f d3f A3f|=c3d e3f g4 agfe|d3f A3f d3f A3f|d3e f3g a4 bagf|
d3f A3f d3f A3f|=c3d e3f g4 agfe|a3f g3e f3d e3c|dA3 B3G F4 D4:|
